**kern	**kern
*staff1	*staff2
*clefG2	*clefG2
*k[b-e-a-d-]	*k[b-e-a-d-]
*M2/4	*M2/4
*f:	*f:
(8cc	8r
=321	=321
*^	*
8dd-L	4r	2r
8ccJ	.	.
8ffL	8r	.
8ccJ)	(8c	.
=322	=322	=322
4b-	8d-L	[2FFF [2FF
.	8cJ	.
4a-	8fL	.
.	8cJ)	.
*v	*v	*
=323	=323
8B-L 8d- 8g	4.FFF] 4.FF]
8A-J 8c 8f	.
8GL 8B- 8e	.
[8A-J [8c [8f	8F
=324	=324
8A-L] 8c] 8f]	4.C
[8cJ 8f 8a-	.
8cL] 8e 8g	.
(8cJ 8cc	8r
=325	=325
8d-L 8dd-	4r
8cJ 8cc	.
8fL 8ff	8r
8cJ) 8cc	(8C
=326	=326
*	*^
4B- 4b-	8D-L	2FF
.	8CJ	.
[4A- [4a-	8FL	.
.	8CJ)	.
=327	=327	=327
(8A-L] 8a-]	(8E-L	4GG
8GJ 8g	8CJ	.
8AL 8a	8FL	4GG
8BJ) 8b	8DJ)	.
=328	=328	=328
(8cL 8cc	4E-	4C
8f#J 8ff#	.	.
8gL 8gg	4r	4r
8e-J) 8ee-	.	.
*	*v	*v
=329	=329
*-	*-
